X:1
T:Title
%%score 1 2 3
L:1/8
Q:1/4=100
M:2/4
K:F
V:1 treble nm="Grand Piano, Track 1"
V:2 treble nm="Grand Piano, Melody"
V:3 bass nm="Grand Piano, Track 3"
V:1
 z2 z A | A>B AF | AA AF | GE FG | F>G AA | A>B AF | AA AF | GG A/G/F/E/ | F3 c | c>d cA | cf cc | %11
 dc f/e/d/f/ | c3 A | A>B Ac | AA Ac | cF A/G/F/E/ | F4 |] %17
V:2
 z2 z C | C>D CA, | CF C[K:bass]A, | B,G, A,B, | A,>B,[K:treble] CC | C>D CA, | CF C[K:bass]A, | %7
 G,D C/B,/A,/G,/ | F,3 A, | G,>A, G,^F, | G,B, A,G, | A,G, F,/G,/A,/=B,/ | C3 C | C>D CA, | %14
 CF C[K:bass]A, | G,D C/B,/A,/G,/ | F,4 |] %17
V:3
 z2 z F, | F,3 F, | F,F, F,F, | C,C, C,C, | F,3 F, | F,>F, F,F, | F,F, F,F, | A,,A,, C,C, | %8
 F,3 F, | C,3 C, | C,C, C,C, | F,E, D,G, | C,3 F, | F,>F, F,F, | F,F, F,F, | A,,A,, C,C, | F,4 |] %17

